X:7
T:Morning Dew, The
R:Reel
M:C|
L:1/8
K:Edor
~E3B BAFA|EDEB ADFD|~E3B BAFA|BcdB ADFA|\
~E3B BAFA|EDEB ADFD|~E3B BAFA|BcdB ADFA||\
B2eB fBeB|B2dB ADFA|B2eB fBed|dcdB ADFA|\
B2eB fBeB|B2dB ADFA|Bdef gfge|dcdB ADFA||\
B2GB FBEB|~E3B AFDA|B2GB FBEB|dcdB ADFA|\
B2GB FBEB|EDEB AFDA|BAGF GABC|dcdB AGFD||
